src/assets/webiks-logo.svg

<svg width="54" height="18" viewBox="0 0 54 18" fill="none" xmlns="http://www.w3.org/2000/svg">
<g clip-path="url(#clip0_385_44)">
<path d="M32.4557 12.5481H31.3667L30.2952 9.93734L29.2153 12.5481H28.1263L26.4753 8.53705H27.7466L28.6688 11.0882L29.7137 8.53705H30.8637L31.9086 11.0882L32.8308 8.53705H34.1067L32.4557 12.5481Z" fill="#81476A"/>
<path d="M38.2449 10.9408H35.4919C35.5972 11.4635 36.0633 11.6865 36.688 11.6865C37.1075 11.6789 37.523 11.6066 37.9192 11.4723V12.4417C37.5235 12.5779 37.1076 12.6502 36.688 12.6559C35.1753 12.6559 34.2782 11.8588 34.2782 10.5467C34.2782 9.27952 35.0583 8.42926 36.3012 8.42926C37.5676 8.42926 38.2716 9.27826 38.2716 10.5467C38.2718 10.6785 38.2629 10.8101 38.2449 10.9408ZM36.3012 9.32894C35.8969 9.32894 35.5797 9.59441 35.5095 10.0316H37.1106C37.0313 9.55196 36.7147 9.32894 36.3012 9.32894Z" fill="#81476A"/>
<path d="M41.0072 12.6798C40.3772 12.6646 39.7511 12.5782 39.1413 12.4222V6.27405H40.3067V8.55865C40.5343 8.49088 40.7701 8.45332 41.0079 8.44696C42.3306 8.44696 43.1102 9.31384 43.1102 10.5678C43.1102 11.8218 42.33 12.6798 41.0072 12.6798ZM41.0072 9.41664C40.7708 9.41649 40.5352 9.44527 40.3061 9.50231V11.6321C40.5363 11.682 40.7714 11.708 41.0072 11.7095C41.5679 11.7095 41.8832 11.3148 41.8832 10.5672C41.8832 9.81962 41.5679 9.41982 41.0072 9.41982V9.41664Z" fill="#81476A"/>
<path d="M45.1558 12.5481H43.9921V8.53705H45.1558V12.5481Z" fill="#81476A"/>
<path d="M48.9969 12.5721L47.9388 11.3268L47.5095 11.8081V12.5701H46.344V6.27405H47.5095V10.2867L48.9988 8.55944H50.3741L48.6045 10.5699L50.3741 12.5721H48.9969Z" fill="#81476A"/>
<path d="M52.1588 12.6559C51.6742 12.6509 51.1929 12.5788 50.729 12.4417V11.473C51.1942 11.6042 51.6747 11.6762 52.1588 11.6871C52.6675 11.6871 52.8166 11.5325 52.8166 11.3703C52.8166 11.2081 52.6869 11.0871 52.3344 11.0871C51.2819 11.0871 50.6681 10.6759 50.6681 9.80096C50.6681 9.11479 51.2994 8.42926 52.5094 8.42926C52.9967 8.43362 53.4809 8.50573 53.9475 8.64341V9.62102C53.4809 9.48237 52.997 9.40732 52.5094 9.398C52.0006 9.398 51.8515 9.5526 51.8515 9.71479C51.8515 9.87699 51.9922 9.99737 52.3337 9.99737C53.3947 9.99737 54 10.4092 54 11.2835C54.0006 11.9697 53.3778 12.6559 52.1588 12.6559Z" fill="#81476A"/>
<path d="M43.9921 6.75299H45.1558V7.89046H43.9921V6.75299Z" fill="#81476A"/>
<path d="M24.2703 0.623718L19.5326 0L16.5776 3.74674L21.3134 4.33437L24.2703 0.623718Z" fill="#70C3AF"/>
<path d="M23.2679 9.09979L20.3505 12.7938L22.1956 17.122L25.1156 13.4273L23.2679 9.09979Z" fill="#81476A"/>
<path d="M16.2959 3.8682L11.5542 3.23279L8.61542 6.96585L13.3551 7.5911L16.2959 3.8682Z" fill="#F4A256"/>
<path d="M20.1704 12.851L15.4017 12.2488L17.225 16.5498L22.0164 17.1818L20.1704 12.851Z" fill="#81476A"/>
<path d="M8.59091 7.11218L10.4256 11.4451L15.1689 12.0692L13.3265 7.73625L8.59091 7.11218Z" fill="#F4A256"/>
<path d="M23.1189 8.99857L18.3718 8.36938L15.4261 12.1013L20.2018 12.7038L23.1189 8.99857Z" fill="#81476A"/>
<path d="M23.3033 8.76451L26.2548 5.03712L24.4109 0.706421L21.4529 4.41483L23.3033 8.76451Z" fill="#70C3AF"/>
<path d="M18.2558 8.2844L16.4035 3.9632L13.4662 7.67986L15.3088 12.0093L18.2558 8.2844Z" fill="#F4A256"/>
<path d="M23.1434 8.83636L21.2932 4.49071L16.5531 3.90332L18.4034 8.2104L23.1434 8.83636Z" fill="#70C3AF"/>
<path d="M32.4557 12.5481H31.3667L30.2952 9.93734L29.2153 12.5481H28.1263L26.4753 8.53705H27.7466L28.6688 11.0882L29.7137 8.53705H30.8637L31.9086 11.0882L32.8308 8.53705H34.1067L32.4557 12.5481Z" fill="#81476A"/>
<path d="M38.2449 10.9408H35.4919C35.5972 11.4635 36.0633 11.6865 36.688 11.6865C37.1075 11.6789 37.523 11.6066 37.9192 11.4723V12.4417C37.5235 12.5779 37.1076 12.6502 36.688 12.6559C35.1753 12.6559 34.2782 11.8588 34.2782 10.5467C34.2782 9.27952 35.0583 8.42926 36.3012 8.42926C37.5676 8.42926 38.2716 9.27826 38.2716 10.5467C38.2718 10.6785 38.2629 10.8101 38.2449 10.9408ZM36.3012 9.32894C35.8969 9.32894 35.5797 9.59441 35.5095 10.0316H37.1106C37.0313 9.55196 36.7147 9.32894 36.3012 9.32894Z" fill="#81476A"/>
<path d="M41.0072 12.6798C40.3772 12.6646 39.7511 12.5782 39.1413 12.4222V6.27405H40.3067V8.55865C40.5343 8.49088 40.7701 8.45332 41.0079 8.44696C42.3306 8.44696 43.1102 9.31384 43.1102 10.5678C43.1102 11.8218 42.33 12.6798 41.0072 12.6798ZM41.0072 9.41664C40.7708 9.41649 40.5352 9.44527 40.3061 9.50231V11.6321C40.5363 11.682 40.7714 11.708 41.0072 11.7095C41.5679 11.7095 41.8832 11.3148 41.8832 10.5672C41.8832 9.81962 41.5679 9.41982 41.0072 9.41982V9.41664Z" fill="#81476A"/>
<path d="M45.1558 12.5481H43.9921V8.53705H45.1558V12.5481Z" fill="#81476A"/>
<path d="M48.9969 12.5721L47.9388 11.3268L47.5095 11.8081V12.5701H46.344V6.27405H47.5095V10.2867L48.9988 8.55944H50.3741L48.6045 10.5699L50.3741 12.5721H48.9969Z" fill="#81476A"/>
<path d="M52.1588 12.6559C51.6742 12.6509 51.1929 12.5788 50.729 12.4417V11.473C51.1942 11.6042 51.6747 11.6762 52.1588 11.6871C52.6675 11.6871 52.8166 11.5325 52.8166 11.3703C52.8166 11.2081 52.6869 11.0871 52.3344 11.0871C51.2819 11.0871 50.6681 10.6759 50.6681 9.80096C50.6681 9.11479 51.2994 8.42926 52.5094 8.42926C52.9967 8.43362 53.4809 8.50573 53.9475 8.64341V9.62102C53.4809 9.48237 52.997 9.40732 52.5094 9.398C52.0006 9.398 51.8515 9.5526 51.8515 9.71479C51.8515 9.87699 51.9922 9.99737 52.3337 9.99737C53.3947 9.99737 54 10.4092 54 11.2835C54.0006 11.9697 53.3778 12.6559 52.1588 12.6559Z" fill="#81476A"/>
<path d="M43.9921 6.75299H45.1558V7.89046H43.9921V6.75299Z" fill="#81476A"/>
<path d="M24.2703 0.623718L19.5326 0L16.5776 3.74674L21.3134 4.33437L24.2703 0.623718Z" fill="#70C3AF"/>
<path d="M23.2679 9.09979L20.3505 12.7938L22.1956 17.122L25.1156 13.4273L23.2679 9.09979Z" fill="#81476A"/>
<path d="M16.2959 3.8682L11.5542 3.23279L8.61542 6.96585L13.3551 7.5911L16.2959 3.8682Z" fill="#F4A256"/>
<path d="M20.1704 12.851L15.4017 12.2488L17.225 16.5498L22.0164 17.1818L20.1704 12.851Z" fill="#81476A"/>
<path d="M8.59091 7.11218L10.4256 11.4451L15.1689 12.0692L13.3265 7.73625L8.59091 7.11218Z" fill="#F4A256"/>
<path d="M23.1189 8.99857L18.3718 8.36938L15.4261 12.1013L20.2018 12.7038L23.1189 8.99857Z" fill="#81476A"/>
<path d="M23.3033 8.76451L26.2548 5.03712L24.4109 0.706421L21.4529 4.41483L23.3033 8.76451Z" fill="#70C3AF"/>
<path d="M18.2558 8.2844L16.4035 3.9632L13.4662 7.67986L15.3088 12.0093L18.2558 8.2844Z" fill="#F4A256"/>
<path d="M23.1434 8.83636L21.2932 4.49071L16.5531 3.90332L18.4034 8.2104L23.1434 8.83636Z" fill="#70C3AF"/>
</g>
<path d="M4.54584 14.8355C4.36585 14.8355 4.18344 14.8148 3.99859 14.7734V14.2882C4.13479 14.3174 4.28437 14.332 4.44733 14.332C4.86325 14.332 5.15998 14.0985 5.33753 13.6315L5.56008 13.0624L3.94751 9.04187H4.59692L5.47252 11.3221C5.6598 11.828 5.77898 12.2038 5.83006 12.4494H5.85925C5.8933 12.3254 5.9541 12.1308 6.04166 11.8657C6.12922 11.5981 6.46487 10.6569 7.04861 9.04187H7.69801L5.97964 13.595C5.80452 14.0498 5.60508 14.3685 5.38131 14.5509C5.15511 14.7406 4.87662 14.8355 4.54584 14.8355Z" fill="#81476A"/>
<path d="M0.605626 7.36365V8.74272C0.605626 9.03702 0.595897 9.3143 0.57644 9.57455H0.605626C0.887766 9.17566 1.29881 8.97622 1.83877 8.97622C2.38116 8.97622 2.79585 9.1562 3.08286 9.51617C3.37473 9.87371 3.52066 10.3821 3.52066 11.0412C3.52066 11.6979 3.37351 12.2074 3.07921 12.5698C2.78734 12.9322 2.37386 13.1134 1.83877 13.1134C1.30368 13.1134 0.89263 12.9177 0.605626 12.5261H0.561846L0.434154 13.0405H0V7.36365H0.605626ZM2.88949 11.0266C2.88949 10.5085 2.79829 10.123 2.61587 9.87006C2.43345 9.61468 2.14401 9.48699 1.74756 9.48699C1.35111 9.48699 1.06167 9.60495 0.879253 9.84088C0.696835 10.0768 0.605626 10.4757 0.605626 11.0375C0.605626 11.597 0.699267 11.9995 0.886549 12.2451C1.07383 12.4859 1.37421 12.6063 1.78769 12.6063C2.15496 12.6063 2.4298 12.4726 2.61222 12.205C2.79707 11.9375 2.88949 11.5447 2.88949 11.0266Z" fill="#81476A"/>
<defs>
<clipPath id="clip0_385_44">
<rect width="45.4091" height="17.1818" fill="white" transform="translate(8.59091)"/>
</clipPath>
</defs>
</svg>

<svg xmlns="http://www.w3.org/2000/svg" width="54" height="18" fill="none" xmlns:v="https://vecta.io/nano"><style><![CDATA[.B{fill:#81476a}.C{fill:#70c3af}.D{fill:#f4a256}]]></style><g clip-path="url(#A)"><g class="B"><use href="#B"/><use href="#C"/><use href="#D"/><use href="#E"/><use href="#F"/><use href="#G"/><use href="#H"/></g><use href="#I" class="C"/><use href="#J" class="B"/><use href="#K" class="D"/><use href="#L" class="B"/><use href="#M" class="D"/><use href="#N" class="B"/><use href="#O" class="C"/><use href="#P" class="D"/><use href="#Q" class="C"/><g class="B"><use href="#B"/><use href="#C"/><use href="#D"/><use href="#E"/><use href="#F"/><use href="#G"/><use href="#H"/></g><use href="#I" class="C"/><use href="#J" class="B"/><use href="#K" class="D"/><use href="#L" class="B"/><use href="#M" class="D"/><use href="#N" class="B"/><use href="#O" class="C"/><use href="#P" class="D"/><use href="#Q" class="C"/></g><path d="M4.546 14.836a2.5 2.5 0 0 1-.547-.062v-.485c.136.029.286.044.449.044.416 0 .713-.234.89-.7l.223-.569-1.613-4.021h.649l.876 2.28.358 1.127h.029l.182-.584 1.007-2.824h.649L5.98 13.595c-.175.455-.375.773-.598.956-.226.19-.505.285-.835.285zM.606 7.364v1.379l-.029.832h.029c.282-.399.693-.598 1.233-.598s.957.18 1.244.54.438.866.438 1.525-.147 1.166-.441 1.529-.705.544-1.24.544-.946-.196-1.233-.587H.562l-.128.514H0V7.364h.606zm2.284 3.663c0-.518-.091-.904-.274-1.157s-.472-.383-.868-.383-.686.118-.868.354-.274.635-.274 1.197.094.962.281 1.208.488.361.901.361c.367 0 .642-.134.825-.401s.277-.66.277-1.178z" class="B"/><defs><clipPath id="A"><path fill="#fff" transform="translate(8.591)" d="M0 0h45.409v17.182H0z"/></clipPath><path id="B" d="M32.456 12.548h-1.089l-1.072-2.611-1.08 2.611h-1.089l-1.651-4.011h1.271l.922 2.551 1.045-2.551h1.15l1.045 2.551.922-2.551h1.276l-1.651 4.011z"/><path id="C" d="M38.245 10.941h-2.753c.105.523.571.746 1.196.746.419-.008.835-.08 1.231-.214v.969a3.95 3.95 0 0 1-1.231.214c-1.513 0-2.41-.797-2.41-2.109 0-1.267.78-2.117 2.023-2.117 1.266 0 1.97.849 1.97 2.117 0 .132-.009.263-.027.394zm-1.944-1.612c-.404 0-.721.265-.792.703h1.601c-.079-.48-.396-.703-.809-.703z"/><path id="D" d="M41.007 12.68a8.34 8.34 0 0 1-1.866-.258V6.274h1.165v2.285a2.71 2.71 0 0 1 .701-.112c1.323 0 2.102.867 2.102 2.121s-.78 2.112-2.103 2.112zm0-3.263c-.236 0-.472.029-.701.086v2.13c.23.05.465.076.701.077.561 0 .876-.395.876-1.142s-.315-1.147-.876-1.147v-.003z"/><path id="E" d="M45.156 12.548h-1.164V8.537h1.164v4.011z"/><path id="F" d="M48.997 12.572l-1.058-1.245-.429.481v.762h-1.166V6.274h1.166v4.013l1.489-1.727h1.375l-1.77 2.01 1.77 2.002h-1.377z"/><path id="G" d="M52.159 12.656c-.485-.005-.966-.077-1.43-.214v-.969c.465.131.946.203 1.43.214.509 0 .658-.155.658-.317s-.13-.283-.482-.283c-1.053 0-1.666-.411-1.666-1.286 0-.686.631-1.372 1.841-1.372a5.25 5.25 0 0 1 1.438.214v.978c-.467-.139-.95-.214-1.438-.223-.509 0-.658.155-.658.317s.141.283.482.283c1.061 0 1.666.412 1.666 1.286.001.686-.622 1.372-1.841 1.372z"/><path id="H" d="M43.992 6.753h1.164V7.89h-1.164V6.753z"/><path id="I" d="M24.27.624L19.533 0l-2.955 3.747 4.736.588L24.27.624z"/><path id="J" d="M23.268 9.1l-2.917 3.694 1.845 4.328 2.92-3.695L23.268 9.1z"/><path id="K" d="M16.296 3.868l-4.742-.635-2.939 3.733 4.74.625 2.941-3.723z"/><path id="L" d="M20.17 12.851l-4.769-.602 1.823 4.301 4.791.632-1.846-4.331z"/><path id="M" d="M8.591 7.112l1.835 4.333 4.743.624-1.842-4.333-4.736-.624z"/><path id="N" d="M23.119 8.999l-4.747-.629-2.946 3.732 4.776.602 2.917-3.705z"/><path id="O" d="M23.303 8.765l2.951-3.727L24.411.706l-2.958 3.708 1.85 4.35z"/><path id="P" d="M18.256 8.284l-1.852-4.321-2.937 3.717 1.843 4.329 2.947-3.725z"/><path id="Q" d="M23.143 8.836l-1.85-4.346-4.74-.587 1.85 4.307 4.74.626z"/></defs></svg>
